X:1
T:Title
%%score { ( 1 3 5 ) | ( 2 4 ) }
L:1/8
M:9/8
K:C
V:1 treble nm="Grand Piano"
V:3 treble 
V:5 treble 
V:2 bass 
V:4 bass 
V:1
 z3 z3[Q:1/4=104] [EG]3 | [EG]3- [EG][FA][EG] EDC | A3 G3 [Ec]3 | B3- BDE [DF][FA][EG] | %4
 [CE]6 [EG]3 | [EG]3- [EG][FA][EG] EDC | A3 c3 [EA]3 | G3- GDB AE^F |[M:3/4] [G,B,G]6 | %9
[M:3/8] G2 G |[M:9/8] .d6 z3 | [EG]3 [Ec]3 [G,CE]3 | .[EA]6 z3 | F3- [FA]3 G3 | .[Ge]6 z3 | %15
 [EG]3 [CE]3 [Ec]3 | z DD z BB A2 B |[M:3/4] [Ec]6 |] %18
V:2
 z3 z3 [C,C]3 | [C,C]3- [C,C][C,C][C,C] [C,G,C][C,F,C][C,E,] | [C,F,C]3 [C,E,C]3 [C,G,]3 | %3
 [G,D]3- [G,D][G,B,][G,C] [G,,G,][G,,G,][G,,G,] | [C,G,]6 [C,C]3 | %5
 [C,C]3- [C,C][C,C][C,C] [C,G,C][C,F,C][C,E,] | [C,F,C]3 [C,E,C]3 [C,C]3 | %7
 [D,B,D]3- [D,B,D][D,G,B,][D,G,D] [D,^F,C][D,G,C][D,A,C] |[M:3/4] G,,6 |[M:3/8] G,2 G, | %10
[M:9/8][K:treble] .F6 z3 | [C,C]3 [C,G,]3 C,3 | A,,2 A,, A,,A,,A,, D,D,D, | z3 C3 [G,B,]3 | %14
 [C,C]2 C, C,[D,B,][E,C] [F,A,F][F,A,F][F,CF] | [C,C]3 [C,G,]3 [C,G,]3 | %16
 G,G,G, z[K:treble] F[G,DF] [G,DF]2 [G,F] |[M:3/4][K:bass] [C,G,]6 |] %18
V:3
 x9 | x9 | x9 | x9 | x9 | x9 | x9 | x9 |[M:3/4] x6 |[M:3/8] x3 |[M:9/8] z2 B, B,ed BAG | x9 | %12
 C2 C C[EA][CEA] [D^FA][DFB][DFc] | [DB]3 z3 z3 | z2 C C[Gd][Gc] dcA | x9 | .[FB]6 z3 | %17
[M:3/4] x6 |] %18
V:4
 x9 | x9 | x9 | x9 | x9 | x9 | x9 | x9 |[M:3/4] x6 |[M:3/8] x3 | %10
[M:9/8][K:treble] [G,B,]2 G, G,[G,CF][G,B,F] [G,DF][G,CF][G,B,F] | x9 | x9 | G,6 z3 | x9 | x9 | %16
 z3 .G,3[K:treble] z3 |[M:3/4][K:bass] x6 |] %18
V:5
 x9 | x9 | x9 | x9 | x9 | x9 | x9 | x9 |[M:3/4] x6 |[M:3/8] x3 |[M:9/8] x9 | x9 | x9 | x9 | x9 | %15
 x9 | z3 .D3 z3 |[M:3/4] x6 |] %18

